lib/functional/system&devices/swap.svg

<svg xmlns="http://www.w3.org/2000/svg" fill="none" stroke="currentColor" aria-hidden="true" viewBox="0 0 32 32"><g id="Icon-Swap"><g clip-path="url(#clip0_9_2208)"><g id="size=md (32px)"><g id="Swap"><path id="Vector" stroke-linecap="round" stroke-linejoin="round" stroke-width="2" d="M10 20H26C26.2652 20 26.5196 19.8946 26.7071 19.7071C26.8946 19.5196 27 19.2652 27 19V6C27 5.73478 26.8946 5.48043 26.7071 5.29289C26.5196 5.10536 26.2652 5 26 5H12C11.7348 5 11.4804 5.10536 11.2929 5.29289C11.1054 5.48043 11 5.73478 11 6V7"/><path id="Vector_2" stroke-linecap="round" stroke-linejoin="round" stroke-width="2" d="M13 17L10 20L13 23"/><path id="Vector_3" stroke-linecap="round" stroke-linejoin="round" stroke-width="2" d="M22 12H6C5.73478 12 5.48043 12.1054 5.29289 12.2929C5.10536 12.4804 5 12.7348 5 13V26C5 26.2652 5.10536 26.5196 5.29289 26.7071C5.48043 26.8946 5.73478 27 6 27H20C20.2652 27 20.5196 26.8946 20.7071 26.7071C20.8946 26.5196 21 26.2652 21 26V25"/><path id="Vector_4" stroke-linecap="round" stroke-linejoin="round" stroke-width="2" d="M19 15L22 12L19 9"/></g></g></g></g><defs><clipPath id="clip0_9_2208"><rect width="32" height="32" fill="white" rx="5"/></clipPath></defs></svg>

<svg xmlns="http://www.w3.org/2000/svg" fill="none" stroke="currentColor" aria-hidden="true" viewBox="0 0 32 32"><path stroke-linecap="round" stroke-linejoin="round" stroke-width="2" d="M10 20h16a1 1 0 0 0 1-1V6a1 1 0 0 0-1-1H12a1 1 0 0 0-1 1v1"/><path stroke-linecap="round" stroke-linejoin="round" stroke-width="2" d="m13 17-3 3 3 3"/><path stroke-linecap="round" stroke-linejoin="round" stroke-width="2" d="M22 12H6a1 1 0 0 0-1 1v13a1 1 0 0 0 1 1h14a1 1 0 0 0 1-1v-1"/><path stroke-linecap="round" stroke-linejoin="round" stroke-width="2" d="m19 15 3-3-3-3"/></svg>
